X:232
T:Cronin's
R:hornpipe
Z:transcribed by Dave Marshall
M:C|
K:G
|: GABc d2ef | gage dega | bage dBGA | BAAG AcBA |
GABc d2ef | gage dega | bage dBAB |1 G2GF G2 (3DEF :|2 G2GF G2fg |
|: afd^c dega | beed e2ga | bagf gedB | BAAG AcBA |
GABc d2ef | gage dega | bage dBAB |1 G2GF G2fg :|2 G2GF G4 |
